X:327
T:Mazi Kalbimde Yaradir
Z:Jack Campin, http://www.campin.me.uk/
F:Jack Campin's Nine-Note Tunebook
% last edit 03-02-2013
C:Necip Celal Andel 
A:Necdet Rustu
G:Turkish tango from the 1930s
M:4/4
L:1/8
Q:1/4=120
K:GMin
   "Gm"z D  GA     B2  c2  |"Cm"  dB````BA      c4    |\
   "D7"z D ^FG     A2  AB  |      cA````AG  "Gm"B4    |
       B B2  A "G7"AA``GF  |"Cm"  ED    C4         z2 |\
   "D7"A A2  A     Ac- c2  |      zA    BA  "Gm"G2 z2:|
   "Gm"d z  d2-    dB``GD  |"D7"(3c=B_B A2      z4    |\
       c z  c2-    cA`^FD  |"Gm"(3BA_A  G2      z4    |
   "Cm"z E  EF     G2  FE  |"Gm"  G4            D2 z2 |\
[1 "D7"DE   D2     z2(3AB=B|      c4            z4   :|
[2 "D7"DE   D2     z2  cA  |"Gm"  BA"D7"G^F "Gm"G2 z2|]

